; HEADER_BLOCK_START
; generated by Creality_Print V6.3.0.3420 on 2025-11-26 at 15:21:17
; total layer number: 210
; filament_density: 1.24
; filament_diameter: 1.75
; max_z_height: 42.00
; creality_uuid: eb89ccc7-8e60-4239-b08b-23eccdf14f67
; HEADER_BLOCK_END

; MINX = 95.68
; MINY = 90.55
; MINZ = 0.00
; MAXX = 175.75
; MAXY = 127.71
; MAXZ = 42.00

; multicolor_method = 0 
; THUMBNAIL_BLOCK_START

;
; THUMBNAIL_BLOCK_END

; THUMBNAIL_BLOCK_START

;
; THUMBNAIL_BLOCK_END

; external perimeters extrusion width = 0.42mm
; perimeters extrusion width = 0.45mm
; infill extrusion width = 0.45mm
; solid infill extrusion width = 0.45mm
; top infill extrusion width = 0.42mm
; support material extrusion width = 0.42mm
; first layer extrusion width = 0.50mm

; EXECUTABLE_BLOCK_START
M73 P0 R136
M201 X500 Y500 Z500 E5000
M203 X500 Y500 Z10 E50
M204 P500 R500 T500
M205 X10.00 Y10.00 Z0.40 E5.00 ; sets the jerk limits, mm/sec
; max_print_temp = 65,225
;TYPE:Custom
M220 S100 ;Reset Feedrate
M221 S100 ;Reset Flowrate

M140 S65 ;Set final bed temp  
G28 ;Home
G92 E0 ;Reset Extruder
G1 Z2.0 F3000 ;Move Z Axis up
M104 S225 ;Set final nozzle temp  
G1 X10.1 Y20 Z0.28 F5000.0 ;Move to start position
M190 S65 ;Wait for bed temp to stabilize  
M109 S225 ;Wait for nozzle temp to stabilize  
G1 X10.1 Y145.0 Z0.28 F1500.0 E15 ;Draw the first line
G1 X10.4 Y145.0 Z0.28 F5000.0 ;Move to side a little
G1 X10.4 Y20 Z0.28 F1500.0 E30 ;Draw the second line
G92 E0  ;Reset Extruder
G1 E-1.0000 F1800 ;Retract a bit
M73 P0 R135
G1 Z2.0 F3000 ;Move Z Axis up
G1 E0.0000 F1800
G90
G21
M83 ; use relative distances for extrusion
;filament start gcode
G1 E-5 F3000
G1 Z.2 F3600
M106 S0
;LAYER_CHANGE
;Z:0.2
;HEIGHT:0.2
;BEFORE_LAYER_CHANGE
;0.2
G92 E0

;_SET_FAN_SPEED_CHANGING_LAYER
M204 S500
M205 X8 Y8
G1 X91.802 Y87.798 Z.6 F3600
G1 Z.2
G1 E5 F2400
;TYPE:Skirt
;WIDTH:0.5
G1 F3000
G1 X92.942 Y86.712 E.05864
G1 X94.32 Y85.882 E.05991
G1 X95.399 Y85.433 E.04356
G1 X96.758 Y85.144 E.05173
G1 X97.674 Y85.052 E.03431
G1 X117.442 Y84.635 E.73643
G1 X148.516 Y85.414 E1.15778
G1 X150.368 Y85.656 E.06954
G1 X151.616 Y86.094 E.04928
G1 X152.862 Y86.749 E.0524
G1 X153.748 Y87.447 E.04203
G1 X154.658 Y88.367 E.04821
G1 X180.28 Y118.908 E1.48484
G1 X181.345 Y120.795 E.08067
G1 X181.663 Y122.71 E.0723
G1 X181.663 Y127.71 E.18623
G1 X181.267 Y129.839 E.08067
G1 X180.13 Y131.683 E.08067
G1 X178.406 Y132.993 E.08067
G1 X175.749 Y133.624 E.1017
G1 X109.749 Y133.624 E2.45825
G1 X106.934 Y132.911 E.10816
G1 X93.955 Y125.864 E.55007
G1 X93.071 Y125.166 E.04196
G1 X83.944 Y116.383 E.47179
G1 X82.95 Y115.279 E.05531
G1 X81.821 Y113.577 E.07609
G1 X81.359 Y112.623 E.03949
G1 X80.725 Y110.677 E.07622
G1 X80.542 Y109.68 E.03776
G1 X80.445 Y107.639 E.07609
G1 X80.538 Y106.583 E.03949
G1 X80.994 Y104.581 E.07649
G1 X81.801 Y102.692 E.07649
G1 X82.477 Y101.571 E.04876
G1 X91.16 Y88.596 E.58149
G1 X91.777 Y87.829 E.03667
G1 X92.132 Y88.114 F3600
G1 F3000
G1 X92.132 Y88.114 E.00002
G1 X93.218 Y87.075 E.05597
G1 X94.536 Y86.285 E.05724
G1 X95.535 Y85.869 E.04028
G1 X96.838 Y85.593 E.04963
G1 X97.684 Y85.509 E.03166
G1 X117.43 Y85.092 E.73564
G1 X148.505 Y85.871 E1.15778
G1 X150.266 Y86.102 E.06614
G1 X151.418 Y86.506 E.04547
G1 X152.614 Y87.133 E.05031
G1 X153.432 Y87.777 E.03878
G1 X154.308 Y88.661 E.04634
G1 X179.93 Y119.202 E1.48484
G1 X180.938 Y121.021 E.07747
G1 X181.206 Y122.71 E.06367
G1 X181.206 Y127.71 E.18623
G1 X180.81 Y129.751 E.07747
G1 X179.678 Y131.496 E.07747
G1 X177.976 Y132.691 E.07747
G1 X175.749 Y133.167 E.08482
G1 X109.749 Y133.167 E2.45825
G1 X107.152 Y132.509 E.0998
G1 X94.203 Y125.48 E.54877
G1 X93.387 Y124.836 E.03872
G1 X84.261 Y116.053 E.47174
G1 X83.295 Y114.978 E.05384
G1 X82.213 Y113.342 E.07307
G1 X81.787 Y112.461 E.03644
G1 X81.174 Y110.594 E.07319
G1 X80.992 Y109.598 E.03771
G1 X80.902 Y107.638 E.07307
G1 X80.988 Y106.664 E.03644
G1 X81.423 Y104.741 E.07344
G1 X82.193 Y102.926 E.07344
G1 X82.857 Y101.825 E.04786
G1 X91.54 Y88.851 E.58149
G1 X92.107 Y88.145 E.0337
; printing object Montaje id:2306748604768 copy 0
G1 E-4.5
;WIPE_START
G1 X92.132 Y88.114 E-.0096
G1 X93.218 Y87.075 E-.35689
G1 X93.61 Y86.84 E-.10852
;WIPE_END
G1 E-.025
G1 X92.947 Y94.444 Z.6 F3600
G1 X92.215 Y102.823 Z.6
G1 Z.2
G1 E5 F2400
;TYPE:Support
G1 F900
G1 X92.605 Y102.84 E.01453
G1 X93.535 Y103.052 E.03555
G1 X94.413 Y103.428 E.03555
G1 X95.21 Y103.953 E.03555
G1 X95.467 Y104.2 E.01327
G1 X95.632 Y111.875 E.28593
G1 X95.21 Y112.278 E.02174
G1 X94.413 Y112.804 E.03555
G1 X93.535 Y113.179 E.03555
G1 X92.605 Y113.391 E.03555
G1 X91.651 Y113.434 E.03555
G1 X90.706 Y113.306 E.03555
G1 X89.798 Y113.011 E.03555
G1 X88.957 Y112.559 E.03555
G1 X88.211 Y111.964 E.03555
G1 X87.583 Y111.245 E.03555
G1 X87.094 Y110.426 E.03555
G1 X86.758 Y109.532 E.03555
G1 X86.588 Y108.593 E.03555
G1 X86.588 Y107.639 E.03555
G1 X86.758 Y106.699 E.03555
G1 X87.094 Y105.806 E.03555
G1 X87.583 Y104.987 E.03555
G1 X88.211 Y104.268 E.03555
G1 X88.957 Y103.673 E.03555
G1 X89.798 Y103.22 E.03555
G1 X90.706 Y102.925 E.03555
G1 X91.651 Y102.797 E.03555
G1 X92.147 Y102.82 E.01847
G1 X95.086 Y112.112 F3600
G1 F900
G1 X95.086 Y105.604 E.24241
G1 X95.06 Y104.379 E.04562
G1 X94.952 Y104.276 E.00554
G1 X94.578 Y104.029 E.0167
G1 X94.578 Y112.202 E.30441
G1 X94.217 Y112.44 E.01609
G1 X94.07 Y112.503 E.00596
G1 X94.07 Y103.728 E.32683
G1 X93.562 Y103.511 E.02057
G1 X93.562 Y112.72 E.343
G1 X93.408 Y112.786 E.00626
G1 X93.054 Y112.867 E.0135
G1 X93.054 Y103.365 E.35392
G1 X92.55 Y103.249 E.01929
G1 X92.547 Y112.982 E.36251
G1 X92.039 Y113.005 E.01894
G1 X92.039 Y103.226 E.36422
G1 X91.67 Y103.21 E.01375
G1 X91.531 Y103.229 E.00523
G1 X91.531 Y113.003 E.36405
G1 X91.023 Y112.934 E.01909
G1 X91.023 Y103.298 E.35892
G1 X90.798 Y103.328 E.00847
G1 X90.515 Y103.42 E.01106
G1 X90.515 Y112.812 E.34981
G1 X90.007 Y112.647 E.01989
G1 X90.007 Y103.585 E.33752
G1 X89.499 Y103.848 E.02131
G1 X89.499 Y112.383 E.31791
G1 X89.185 Y112.214 E.0133
G1 X88.992 Y112.06 E.00922
G1 X88.992 Y104.172 E.29381
G1 X88.484 Y104.581 E.0243
G1 X88.484 Y111.65 E.26331
G1 X87.976 Y111.069 E.02875
G1 X87.976 Y105.162 E.22
G1 X87.917 Y105.229 E.00331
G1 X87.468 Y105.982 E.03264
G1 X87.468 Y110.651 E.17392
G1 E-4.5 F3000
;WIPE_START
G1 F900
G1 X87.468 Y108.651 E-.475
;WIPE_END
G1 E-.025 F3000
G1 X95.026 Y107.591 Z.6 F3600
G1 X120.146 Y104.069 Z.6
G1 Z.2
G1 E5 F2400
G1 F900
G1 X120.584 Y104.198 E.017
G1 X121.33 Y104.65 E.03252
G1 X121.934 Y105.322 E.03364
G1 X121.963 Y105.383 E.00254
G1 X121.59 Y109.126 E.14008
G1 X121.346 Y109.397 E.01361
G1 X120.539 Y109.888 E.03515
G1 X119.683 Y110.108 E.03292
G1 X118.781 Y110.071 E.03363
G1 X118.157 Y109.854 E.02462
G1 X118.037 Y104.252 E.2087
G1 X118.781 Y103.994 E.02934
G1 X119.659 Y103.958 E.03271
G1 X120.079 Y104.054 E.01605
G1 X121.495 Y108.008 F3600
G1 F900
G1 X121.495 Y105.448 E.09532
G1 X121.065 Y104.97 E.02394
G1 X120.987 Y104.923 E.00339
G1 X120.987 Y109.139 E.15702
G1 X120.479 Y109.447 E.02213
G1 X120.479 Y104.615 E.17998
G1 X120.416 Y104.577 E.00275
G1 X119.971 Y104.451 E.01722
G1 X119.971 Y109.609 E.19212
G1 X119.64 Y109.695 E.01276
G1 X119.463 Y109.687 E.00657
G1 X119.463 Y104.378 E.19777
G1 X118.956 Y104.398 E.01893
G1 X118.956 Y109.872 E.20388
G1 E-4.5 F3000
;WIPE_START
G1 F900
G1 X118.956 Y107.872 E-.475
;WIPE_END
G1 E-.025 F3000
G1 X125.99 Y104.912 Z.6 F3600
G1 X128.279 Y103.948 Z.6
G1 Z.2
G1 E5 F2400
G1 F900
G1 X128.689 Y104.069 E.01593
G1 X128.81 Y109.688 E.20934
G1 X128.311 Y109.976 E.02144
G1 X128.823 Y110.323 E.02305
G1 X128.97 Y117.194 E.25596
G1 X128.501 Y117.512 E.02113
G1 X127.659 Y117.847 E.03376
G1 X126.764 Y117.994 E.03376
G1 X125.859 Y117.945 E.03376
G1 X124.986 Y117.703 E.03376
G1 X124.185 Y117.278 E.03376
G1 X123.749 Y116.907 E.02131
G1 X123.955 Y116.156 E.02903
G1 X124.043 Y115.01 E.04279
G1 X124.537 Y110.152 E.18189
G1 X124.986 Y109.914 E.01891
G1 X125.988 Y109.636 E.03873
G1 X125.306 Y109.092 E.03248
G1 X124.822 Y108.457 E.02974
G1 X124.73 Y108.255 E.00825
G1 X125.058 Y105.036 E.12053
G1 X125.376 Y104.666 E.01818
G1 X126.061 Y104.169 E.03152
G1 X126.914 Y103.873 E.03363
G1 X127.792 Y103.837 E.03271
G1 X128.212 Y103.933 E.01605
G1 X128.097 Y117.451 F3600
G1 F900
G1 X128.097 Y110.079 E.27458
G1 X128.097 Y109.862 F3600
G1 F900
G1 X128.097 Y104.329 E.20608
G1 X127.754 Y104.251 E.01311
G1 X127.589 Y104.257 E.00614
G1 X127.589 Y117.432 E.49072
G1 X127.081 Y117.525 E.01923
G1 X127.081 Y104.278 E.4934
G1 X126.992 Y104.282 E.00334
G1 X126.574 Y104.427 E.01649
G1 X126.574 Y117.572 E.48959
G1 X126.066 Y117.544 E.01894
G1 X126.066 Y110.041 E.27947
G1 X125.558 Y110.182 E.01963
G1 X125.558 Y117.434 E.27013
G1 X125.139 Y117.318 E.0162
G1 X125.05 Y117.271 E.00375
G1 X125.05 Y110.345 E.25795
G1 X124.924 Y110.412 E.0053
G1 X124.542 Y114.167 E.14058
G1 X124.542 Y117.235 E.11424
G1 X126.066 Y109.435 F3600
G1 F900
G1 X126.066 Y104.674 E.17731
G1 X125.656 Y104.971 E.01884
G1 X125.558 Y105.085 E.00559
G1 X125.558 Y109.03 E.14695
G1 E-4.5 F3000
;WIPE_START
G1 F900
G1 X125.558 Y107.03 E-.475
;WIPE_END
G1 E-.025 F3000
G1 X123.399 Y99.709 Z.6 F3600
G1 X120.914 Y91.28 Z.6
G1 Z.2
G1 E5 F2400
G1 F900
G1 X121.329 Y91.348 E.01565
G1 X122.171 Y91.684 E.03376
G1 X122.922 Y92.192 E.03376
G1 X123.545 Y92.85 E.03376
G1 X124.012 Y93.627 E.03376
G1 X124.059 Y93.765 E.0054
G1 X123.471 Y94.654 E.0397
G1 X123.002 Y95.844 E.04763
G1 X122.784 Y97.149 E.0493
G1 X122.621 Y98.786 E.06128
G1 X122.171 Y99.091 E.02023
G1 X121.329 Y99.427 E.03376
G1 X120.435 Y99.573 E.03376
G1 X119.53 Y99.524 E.03376
G1 X118.656 Y99.282 E.03376
G1 X117.922 Y98.893 E.03094
G1 X117.774 Y91.986 E.25729
G1 X117.855 Y91.918 E.00395
G1 X118.656 Y91.493 E.03376
G1 X119.53 Y91.251 E.03376
G1 X120.435 Y91.202 E.03376
G1 X120.847 Y91.269 E.01555
G1 X123.526 Y94.191 F3600
G1 F900
G1 X123.526 Y93.618 E.02137
G1 X123.216 Y93.101 E.02246
G1 X123.019 Y92.893 E.01067
G1 X123.019 Y94.68 E.06655
G1 X122.611 Y95.713 E.04137
G1 X122.511 Y96.268 E.02101
G1 X122.511 Y92.411 E.14367
G1 X122.003 Y92.066 E.02285
G1 X122.003 Y98.708 E.24738
G1 X121.495 Y98.918 E.02046
G1 X121.495 Y91.857 E.26299
G1 X121.218 Y91.747 E.01108
G1 X120.987 Y91.709 E.00873
G1 X120.987 Y99.066 E.27402
G1 X120.479 Y99.149 E.01917
G1 X120.479 Y91.626 E.28022
G1 X120.412 Y91.615 E.00253
G1 X119.971 Y91.639 E.01645
G1 X119.971 Y99.136 E.27926
G1 X119.596 Y99.116 E.01398
G1 X119.463 Y99.079 E.00514
G1 X119.463 Y91.696 E.27499
G1 X118.956 Y91.837 E.01963
G1 X118.956 Y98.938 E.26449
G1 X118.809 Y98.897 E.00566
G1 X118.448 Y98.706 E.01524
G1 X118.448 Y91.836 E.25585
G1 E-4.5 F3000
;WIPE_START
G1 F900
G1 X118.448 Y93.836 E-.475
;WIPE_END
G1 E-.025 F3000
G1 X125.831 Y95.77 Z.6 F3600
G1 X153.814 Y103.098 Z.6
G1 Z.2
G1 E5 F2400
G1 F900
G1 X154.26 Y103.124 E.01667
G1 X155.11 Y103.353 E.03279
G1 X155.908 Y103.79 E.03387
G1 X156.58 Y104.402 E.03387
G1 X157.087 Y105.151 E.03368
G1 X157.261 Y105.61 E.01827
G1 X157.408 Y106.014 E.01603
G1 X157.515 Y106.911 E.03363
G1 X157.407 Y107.814 E.03387
G1 X157.09 Y108.666 E.03387
G1 X156.589 Y109.407 E.03329
G1 X156.271 Y109.707 E.01629
G1 X155.897 Y110.038 E.0186
G1 X155.11 Y110.469 E.03342
G1 X154.232 Y110.706 E.03387
G1 X153.323 Y110.729 E.03387
G1 X152.471 Y110.545 E.03246
G1 X152.054 Y110.365 E.01692
G1 X151.593 Y110.123 E.01941
G1 X151.384 Y109.952 E.01008
G1 X151.256 Y103.975 E.22265
G1 X151.616 Y103.679 E.01735
G1 X152.435 Y103.284 E.03386
G1 X153.301 Y103.098 E.03302
G1 X153.745 Y103.098 E.01653
G1 X157.046 Y108.195 F3600
G1 F900
G1 X157.046 Y106.45 E.06501
G1 X157.005 Y106.11 E.01273
G1 X156.719 Y105.342 E.03054
G1 X156.538 Y105.073 E.01206
G1 X156.538 Y108.748 E.13687
G1 X156.274 Y109.139 E.01756
G1 X156.03 Y109.369 E.01249
G1 X156.03 Y104.457 E.18295
G1 X155.667 Y104.127 E.01826
G1 X155.522 Y104.047 E.00617
G1 X155.522 Y109.774 E.21332
G1 X155.014 Y110.053 E.02157
G1 X155.014 Y103.769 E.23404
G1 X154.956 Y103.737 E.00247
G1 X154.506 Y103.616 E.01735
G1 X154.506 Y110.206 E.24545
G1 X154.173 Y110.296 E.01286
G1 X153.998 Y110.3 E.0065
G1 X153.998 Y103.52 E.25252
G1 X153.49 Y103.509 E.01892
G1 X153.49 Y110.313 E.25343
G1 X153.362 Y110.316 E.00479
G1 X152.983 Y110.235 E.01446
G1 X152.983 Y103.587 E.2476
G1 X152.569 Y103.676 E.01575
M73 P0 R134
G1 X152.475 Y103.722 E.00391
G1 X152.475 Y110.099 E.23753
G1 X151.967 Y109.855 E.02098
G1 X151.967 Y103.738 E.22782
G1 E-4.5 F3000
;WIPE_START
G1 F900
G1 X151.967 Y105.738 E-.475
;WIPE_END
G1 E-.025 F3000
G1 X144.828 Y108.439 Z.6 F3600
G1 X118.038 Y118.572 Z.6
G1 Z.2
G1 E5 F2400
;TYPE:Inner wall
;WIDTH:0.499999
G1 F900
G1 X118.231 Y118.702 E.00868
G1 X118.507 Y118.827 E.01129
G1 X118.874 Y118.903 E.01395
;WIDTH:0.54323
G1 X119.06 Y118.945 E.00779
;WIDTH:0.58646
G1 X119.247 Y118.988 E.00847
;WIDTH:0.62969
G1 X119.433 Y119.03 E.00914
G1 X119.711 Y118.961 E.01367
;WIDTH:0.590131
G1 X119.988 Y118.892 E.01275
;WIDTH:0.550572
G1 X120.228 Y118.786 E.01083
;WIDTH:0.523882
G1 X120.751 Y118.446 E.02446
;WIDTH:0.503061
G1 X121.025 Y118.185 E.01417
G1 X121.597 Y117.468 E.0344
;WIDTH:0.494473
G1 X122.05 Y116.501 E.03932
;WIDTH:0.487813
G1 X122.256 Y115.545 E.03543
;WIDTH:0.484344
G1 X122.322 Y114.843 E.02536
;WIDTH:0.494442
G1 X124.093 Y97.17 E.65351
;WIDTH:0.504705
G1 X124.259 Y96.24 E.03556
G1 X124.425 Y95.776 E.01856
;WIDTH:0.506796
G1 X124.638 Y95.266 E.0209
G1 X124.909 Y94.827 E.01948
;WIDTH:0.507316
G1 X125.229 Y94.372 E.02104
G1 X125.584 Y94.012 E.01916
;WIDTH:0.515421
G1 X125.965 Y93.666 E.01981
G1 X126.869 Y93.09 E.04124
;WIDTH:0.499999
G1 X127.855 Y92.74 E.039
G1 X128.94 Y92.6 E.04072
G1 X148.203 Y92.188 E.71765
G1 X148.788 Y92.248 E.02192
G1 X149.157 Y92.426 E.01525
G1 X149.448 Y92.705 E.01502
G1 X149.641 Y93.063 E.01514
G1 X149.725 Y93.532 E.01772
G1 X150.354 Y122.896 E1.09395
G1 X150.412 Y123.157 E.00997
G1 X150.635 Y123.435 E.01327
G1 X150.821 Y123.531 E.00782
G1 X151.039 Y123.567 E.00822
G1 X174.892 Y123.567 E.88842
G1 X174.892 Y126.852 E.12238
G1 X110.606 Y126.852 E2.3944
G1 X110.606 Y123.567 E.12238
G1 X129.809 Y123.567 E.71523
G1 X130.132 Y123.424 E.01316
M73 P1 R134
G1 X130.352 Y123.132 E.01361
G1 X130.399 Y122.866 E.01006
G1 X129.82 Y95.802 E1.00829
G1 X129.669 Y95.134 E.02551
G1 X129.562 Y94.892 E.00984
G1 X129.207 Y94.383 E.02311
G1 X129.018 Y94.2 E.0098
G1 X128.6 Y93.929 E.01854
G1 X128.266 Y93.767 E.01383
G1 X127.869 Y93.684 E.01511
G1 X127.455 Y93.645 E.01547
G1 X127.064 Y93.709 E.01476
;WIDTH:0.515368
G1 X126.581 Y93.834 E.01922
G1 X126.254 Y94.037 E.0148
G1 X125.905 Y94.311 E.01709
;WIDTH:0.483329
G1 X125.317 Y95.009 E.03276
;WIDTH:0.506796
G1 X125.062 Y95.454 E.01937
G1 X124.827 Y95.954 E.0209
;WIDTH:0.504705
G1 X124.712 Y96.328 E.01471
G1 X124.527 Y97.364 E.03962
;WIDTH:0.494442
G1 X122.754 Y114.882 E.64781
;WIDTH:0.50563
G1 X122.651 Y115.971 E.04124
G1 X122.39 Y116.897 E.0363
;WIDTH:0.498849
G1 X122.001 Y117.67 E.03216
;WIDTH:0.494473
G1 X121.853 Y117.886 E.00962
;WIDTH:0.503061
G1 X121.381 Y118.476 E.0283
G1 X121.123 Y118.715 E.0132
;WIDTH:0.526832
G1 X120.647 Y119.095 E.02402
;WIDTH:0.53066
G1 X120.297 Y119.295 E.01605
;WIDTH:0.573955
G1 X120.022 Y119.422 E.01311
;WIDTH:0.61725
G1 X119.567 Y119.628 E.02336
;WIDTH:0.578167
G1 X119.388 Y119.707 E.00855
;WIDTH:0.539083
G1 X119.208 Y119.786 E.00793
;WIDTH:0.499999
G1 X118.881 Y119.893 E.01282
G1 X117.882 Y120.013 E.03747
G1 X98.616 Y120.426 E.71776
G1 X98.027 Y120.364 E.02204
G1 X97.662 Y120.187 E.01514
G1 X97.37 Y119.908 E.01504
G1 X97.178 Y119.55 E.01514
G1 X97.093 Y119.082 E.01772
G1 X96.542 Y93.343 E.95889
G1 X96.604 Y92.754 E.02204
G1 X96.781 Y92.389 E.01513
G1 X97.06 Y92.097 E.01504
G1 X97.418 Y91.905 E.01513
G1 X97.886 Y91.82 E.01772
G1 X116.455 Y91.423 E.69177
G1 X116.999 Y116.812 E.94586
G1 X117.149 Y117.48 E.02551
G1 X117.256 Y117.722 E.00983
G1 X117.611 Y118.23 E.0231
G1 X117.791 Y118.407 E.00941
G1 X118.004 Y118.55 E.00956
G1 X118.301 Y118.19 F3600
;TYPE:Outer wall
G1 F900
G1 X118.6 Y118.379 E.01318
G1 X119.342 Y118.516 E.02809
G1 X119.983 Y118.386 E.02436
G1 X120.515 Y118.061 E.02324
G1 X121.19 Y117.267 E.03881
G1 X121.61 Y116.402 E.03579
G1 X121.809 Y115.501 E.0344
G1 X123.628 Y97.253 E.68303
G1 X123.817 Y96.093 E.04378
